X: 12
T: Acemaşîrân Aranağme (Semâî)
C: ?
O: Turkey
F: http://compmusic.upf.edu/node/140
N: acemasiran--aranagme--semai--1--
N: makam= acemasiran
N: form= aranagme
N: usul= semai = 3/4
M: 3/4
L: 1/16
K: C _B   
Q: 1/4=120
%%MIDI tuningsystem comma53
f4 a4 g4  | f4 e4 d4  | c4 a4 g4  | f12  | \
w:  ARANAĞME  |   |   |   | 
f4 e4 d4  | c4 B4 A4  | G4 c2B2 A2G2  | 
w:   |   |   | 
F2GA Bcde f4  | f4 a4 g4  | f4 e4 d4  | \
w:   |  ARANAĞME  |   | 
c4 a4 g4  | f12  | f4 e4 d4  | 
w:   |   |   | 
c4 B4 A4  | G4 c2B2 A2G2  | F12  | c4 .c2.c2 .c2.c2  | \
w:   |   |   |   | 
c4 .c2.c2 .c2.c2  | c4 d4 e4  | 
w:   |   | 
f12  | f4 e4 f4  | g4 ^3/4f4 g4  | c'4 =b4 d'4  | c'12  | \
w:   |   |   |   |   | 
c4 .c2.c2 .c2.c2  | c4 .c2.c2 .c2.c2  | 
w:   |   | 
c4 d4 e4  | f12  | f4 e4 d4  | c4 B4 A4  | \
w:   |   |   |   | 
G4 c2B2 A2G2  | F12  | |


